X:24
T:An dro 08/15
C:Pennec, Tablatures 1
M:4/4
L:1/4
K:C
Aeed/e/|fedB/c/|dBe d/c/|B/c/A/B/ cB|\
Aeed/e/|fedB/c/|dBe d/c/|B/A/B/c/ A2:|
|:AABc/B/|AAB B/c/|dBed/c/|B/c/A/B/ cB|\
AABc/B/|AAB B/c/|dBed/c/|B/A/B/c/ A2:|
